apps/trade/public/tokens/ada.svg

<svg width="24" height="24" viewBox="0 0 24 24" fill="none" xmlns="http://www.w3.org/2000/svg">
<rect width="24" height="24" rx="12" fill="white"/>
<g clip-path="url(#clip0_11541_1743)">
<path d="M7.48271 12.1734C7.44005 12.9147 8.01071 13.5494 8.75205 13.5921C8.77871 13.5921 8.80538 13.5921 8.83205 13.5921C9.57871 13.5921 10.1814 12.9894 10.176 12.2427C10.176 11.496 9.57338 10.8934 8.82671 10.8987C8.11205 10.8987 7.52005 11.4587 7.48271 12.1734Z" fill="#0033AD"/>
<path d="M2.45869 11.8268C2.21869 11.8108 2.01069 11.9974 2.00002 12.2374C1.98935 12.4774 2.17069 12.6854 2.41069 12.6961C2.65069 12.7121 2.85335 12.5254 2.86935 12.2854C2.88535 12.0454 2.69869 11.8428 2.45869 11.8268Z" fill="#0033AD"/>
<path d="M7.39736 4.35474C7.61069 4.24807 7.69603 3.98141 7.58936 3.76807C7.48269 3.55474 7.21603 3.46941 7.00269 3.57607C6.78936 3.68274 6.70403 3.94407 6.81069 4.15741C6.91736 4.37607 7.17869 4.46674 7.39736 4.35474Z" fill="#0033AD"/>
<path d="M8.7627 6.73873C9.09336 6.5734 9.2267 6.16807 9.06136 5.8374C8.89603 5.50673 8.4907 5.3734 8.16003 5.53873C7.82936 5.70407 7.69603 6.1094 7.86136 6.44007C8.0267 6.77073 8.43203 6.90407 8.7627 6.73873Z" fill="#0033AD"/>
<path d="M4.16533 8.3761C4.42133 8.54144 4.76266 8.4721 4.93333 8.2161C5.09866 7.9601 5.02933 7.61877 4.77333 7.4481C4.51733 7.28277 4.176 7.3521 4.00533 7.6081C3.83466 7.8641 3.90933 8.21077 4.16533 8.3761Z" fill="#0033AD"/>
<path d="M4.98134 11.5867C4.60801 11.5654 4.29334 11.848 4.27201 12.2214C4.25067 12.5947 4.53334 12.9094 4.90667 12.9307C5.28001 12.952 5.59467 12.6694 5.61601 12.296C5.63734 11.928 5.35467 11.608 4.98134 11.5867Z" fill="#0033AD"/>
<path d="M4.24 16.104C3.968 16.2427 3.856 16.5734 3.99467 16.8507C4.13334 17.1227 4.464 17.2347 4.74134 17.096C5.01334 16.9574 5.12534 16.6267 4.98667 16.3494C4.848 16.0774 4.512 15.9654 4.24 16.104Z" fill="#0033AD"/>
<path d="M6.85336 10.1947C7.22136 10.4347 7.71203 10.3334 7.9467 9.96541C8.1867 9.59741 8.08536 9.10674 7.71736 8.87208C7.34936 8.63208 6.8587 8.73341 6.62403 9.10141C6.38403 9.46408 6.48536 9.95474 6.85336 10.1947Z" fill="#0033AD"/>
<path d="M15.1467 6.68533C15.456 6.888 15.8774 6.80267 16.08 6.49333C16.2827 6.184 16.1974 5.76267 15.888 5.56C15.5787 5.35733 15.1574 5.44267 14.9547 5.752C14.7467 6.06667 14.832 6.48267 15.1467 6.68533Z" fill="#0033AD"/>
<path d="M16.5227 4.31204C16.7254 4.44538 16.992 4.38671 17.1254 4.18404C17.2587 3.98138 17.2 3.71471 16.9974 3.58138C16.7947 3.44804 16.528 3.50671 16.3947 3.70404C16.2667 3.90671 16.3254 4.17871 16.5227 4.31204Z" fill="#0033AD"/>
<path d="M15.248 10.8881C14.5067 10.8454 13.8667 11.4161 13.8293 12.1574C13.7867 12.8988 14.3573 13.5388 15.0987 13.5761C15.1253 13.5761 15.152 13.5761 15.1733 13.5761C15.9147 13.5761 16.5173 12.9734 16.5173 12.2268C16.5227 11.5174 15.9627 10.9254 15.248 10.8881Z" fill="#0033AD"/>
<path d="M9.20535 10.0987C9.43468 10.552 9.89868 10.84 10.4107 10.84C11.152 10.84 11.7547 10.2374 11.7547 9.4907C11.7547 9.2827 11.7067 9.0747 11.6107 8.8827C11.2747 8.21603 10.464 7.94936 9.80268 8.28536C9.13601 8.6267 8.86935 9.43736 9.20535 10.0987Z" fill="#0033AD"/>
<path d="M19.76 8.37601C20.032 8.23734 20.1387 7.90134 20 7.62934C19.8613 7.35734 19.5253 7.25067 19.2533 7.38934C18.9813 7.52801 18.8747 7.85867 19.008 8.13067C19.152 8.40267 19.4827 8.51467 19.76 8.37601Z" fill="#0033AD"/>
<path d="M16.3467 8.80277C15.9573 9.0001 15.7973 9.47477 15.9947 9.8641C16.192 10.2534 16.6667 10.4134 17.056 10.2161C17.4453 10.0188 17.6053 9.5441 17.408 9.15477C17.2107 8.76543 16.736 8.61077 16.3467 8.80277Z" fill="#0033AD"/>
<path d="M11.9467 4.10939C12.2507 4.12539 12.512 3.89072 12.5333 3.58672C12.5547 3.28272 12.3147 3.02139 12.0107 3.00006C11.7067 2.98406 11.4453 3.21339 11.424 3.51739C11.408 3.82672 11.6427 4.08806 11.9467 4.10939Z" fill="#0033AD"/>
<path d="M11.9414 7.59211C12.3787 7.61878 12.752 7.28278 12.7734 6.84545C12.8 6.40811 12.464 6.03478 12.0267 6.01345C11.5894 5.98678 11.216 6.32278 11.1947 6.76011C11.1734 7.19745 11.504 7.57078 11.9414 7.59211Z" fill="#0033AD"/>
<path d="M7.65337 15.6774C8.0427 15.4801 8.2027 15.0054 8.00537 14.6161C7.80803 14.2268 7.33337 14.0668 6.94403 14.2641C6.5547 14.4614 6.3947 14.9361 6.59203 15.3254C6.78937 15.7148 7.26403 15.8748 7.65337 15.6774Z" fill="#0033AD"/>
<path d="M12.4534 8.74936C12.048 9.37336 12.2187 10.2054 12.8427 10.6107C13.4667 11.016 14.2987 10.8454 14.704 10.2214C15.1094 9.59736 14.9387 8.76536 14.3147 8.36002C14.096 8.21602 13.84 8.14136 13.5787 8.14136C13.1254 8.14136 12.704 8.37069 12.4534 8.74936Z" fill="#0033AD"/>
<path d="M14.7947 14.3814C14.4587 13.7147 13.648 13.448 12.9867 13.784C12.32 14.12 12.0534 14.9307 12.3894 15.592C12.7254 16.2587 13.536 16.5254 14.1974 16.1894C14.8587 15.8587 15.1307 15.0587 14.8 14.392C14.8 14.3867 14.8 14.3867 14.7947 14.3814Z" fill="#0033AD"/>
<path d="M17.1467 14.2854C16.7787 14.0454 16.288 14.1467 16.0533 14.5147C15.8133 14.8827 15.9147 15.3734 16.2827 15.6081C16.6507 15.8481 17.1413 15.7467 17.376 15.3787C17.616 15.0161 17.5147 14.5254 17.1467 14.2854Z" fill="#0033AD"/>
<path d="M19.728 12.2641C19.7493 11.8907 19.4667 11.5761 19.0933 11.5547C18.72 11.5334 18.4053 11.8161 18.384 12.1894C18.3627 12.5627 18.6453 12.8774 19.0187 12.8987C19.3867 12.9201 19.7067 12.6321 19.728 12.2641Z" fill="#0033AD"/>
<path d="M21.5894 11.784C21.3494 11.768 21.1414 11.9547 21.1307 12.1947C21.12 12.4347 21.3014 12.6427 21.5414 12.6534C21.7814 12.6694 21.984 12.4827 22 12.2427C22.0107 12.0027 21.8294 11.8 21.5894 11.784Z" fill="#0033AD"/>
<path d="M19.8347 16.1041C19.5787 15.9388 19.2374 16.0081 19.0667 16.2641C18.9014 16.5201 18.9707 16.8614 19.2267 17.0321C19.4827 17.1974 19.824 17.1281 19.9947 16.8721C20.1654 16.6161 20.0907 16.2694 19.8347 16.1041Z" fill="#0033AD"/>
<path d="M7.47201 20.168C7.26934 20.0347 7.00267 20.0934 6.86934 20.2907C6.73601 20.4934 6.79467 20.76 6.99201 20.8934C7.19467 21.0267 7.46134 20.968 7.59467 20.7707C7.73334 20.5734 7.67467 20.3014 7.47201 20.168Z" fill="#0033AD"/>
<path d="M16.6027 20.1254C16.3893 20.2321 16.304 20.4987 16.4107 20.7121C16.5173 20.9254 16.784 21.0107 16.9973 20.9041C17.2107 20.7974 17.296 20.5361 17.1893 20.3227C17.0827 20.1041 16.8213 20.0134 16.6027 20.1254Z" fill="#0033AD"/>
<path d="M11.5467 15.7307C11.952 15.1067 11.7813 14.2747 11.1573 13.864C10.5333 13.4587 9.70134 13.6293 9.29067 14.2533C8.88001 14.8773 9.05601 15.7093 9.68001 16.12C9.89867 16.264 10.1547 16.3387 10.416 16.3387C10.8747 16.344 11.296 16.1147 11.5467 15.7307Z" fill="#0033AD"/>
<path d="M8.85338 17.7947C8.54405 17.5921 8.12271 17.6774 7.92005 17.9867C7.71738 18.2961 7.80271 18.7174 8.11205 18.9201C8.42138 19.1227 8.84272 19.0374 9.04538 18.7281C9.25338 18.4187 9.16805 17.9974 8.85338 17.7947Z" fill="#0033AD"/>
<path d="M11.9947 20.3708C11.6907 20.3548 11.4293 20.5894 11.408 20.8934C11.3867 21.1974 11.6267 21.4588 11.9307 21.4801C12.2347 21.4961 12.496 21.2668 12.5173 20.9628C12.5333 20.6534 12.2987 20.3921 11.9947 20.3708Z" fill="#0033AD"/>
<path d="M12 16.8881C11.5627 16.8614 11.1894 17.1974 11.168 17.6347C11.1414 18.0721 11.4774 18.4454 11.9147 18.4667C12.352 18.4881 12.7254 18.1574 12.7467 17.7201C12.7734 17.2881 12.4374 16.9094 12 16.8881Z" fill="#0033AD"/>
<path d="M15.2374 17.7414C14.9067 17.9121 14.7734 18.3174 14.944 18.6481C15.1147 18.9787 15.52 19.1121 15.8507 18.9414C16.1814 18.7761 16.3147 18.3707 16.1494 18.0401C15.9787 17.7094 15.5734 17.5707 15.2374 17.7414Z" fill="#0033AD"/>
</g>
<defs>
<clipPath id="clip0_11541_1743">
<rect width="20" height="18.48" fill="white" transform="translate(2 3)"/>
</clipPath>
</defs>
</svg>

<svg width="24" height="24" fill="none" xmlns="http://www.w3.org/2000/svg">
    <rect width="24" height="24" rx="12" fill="#fff"/>
    <g clip-path="url(#a)" fill="#0033AD">
        <path d="M7.483 12.173a1.347 1.347 0 0 0 1.27 1.42h.08a1.34 1.34 0 0 0 1.343-1.35 1.34 1.34 0 0 0-1.35-1.344c-.714 0-1.306.56-1.343 1.274ZM2.459 11.827a.436.436 0 1 0-.047.869.436.436 0 0 0 .047-.87ZM7.397 4.355a.44.44 0 0 0 .192-.587.44.44 0 0 0-.586-.192.434.434 0 0 0-.192.581c.106.22.368.31.586.198ZM8.763 6.739a.673.673 0 0 0 .298-.902.673.673 0 0 0-.901-.298.673.673 0 0 0-.299.901c.166.33.571.464.902.299ZM4.165 8.376a.558.558 0 0 0 .768-.16.558.558 0 0 0-.16-.768.558.558 0 0 0-.768.16.552.552 0 0 0 .16.768ZM4.981 11.587a.67.67 0 0 0-.709.634.67.67 0 0 0 .635.71.673.673 0 0 0 .075-1.344ZM4.24 16.104a.556.556 0 1 0 .503.993.556.556 0 0 0-.503-.993ZM6.853 10.195a.785.785 0 0 0 1.094-.23.785.785 0 0 0-.23-1.093.785.785 0 0 0-1.093.23.787.787 0 0 0 .23 1.093ZM15.147 6.685c.309.203.73.118.933-.192a.677.677 0 0 0-.192-.933.677.677 0 0 0-.933.192.666.666 0 0 0 .192.933ZM16.523 4.312c.202.133.469.075.602-.128a.433.433 0 0 0-.128-.603.437.437 0 0 0-.602.123.45.45 0 0 0 .128.608ZM15.248 10.888a1.344 1.344 0 0 0-1.419 1.27 1.344 1.344 0 0 0 1.27 1.418h.074c.742 0 1.344-.603 1.344-1.35a1.336 1.336 0 0 0-1.269-1.338ZM9.205 10.099a1.346 1.346 0 1 0 2.405-1.216 1.344 1.344 0 0 0-1.807-.598 1.352 1.352 0 0 0-.598 1.814ZM19.76 8.376a.556.556 0 1 0-.752-.245.564.564 0 0 0 .752.245ZM16.347 8.803a.79.79 0 1 0 .71 1.413.79.79 0 0 0-.71-1.413ZM11.947 4.11a.562.562 0 0 0 .586-.523.558.558 0 0 0-.522-.587.558.558 0 0 0-.587.517c-.016.31.219.571.523.592ZM11.941 7.592c.438.027.811-.31.832-.747a.785.785 0 0 0-.746-.832.785.785 0 0 0-.832.747c-.022.437.309.81.746.832ZM7.653 15.677a.79.79 0 1 0-.71-1.413.79.79 0 0 0 .71 1.413ZM12.453 8.75a1.343 1.343 0 0 0 .39 1.86 1.343 1.343 0 0 0 1.861-.389 1.343 1.343 0 0 0-1.125-2.08c-.454 0-.875.23-1.126.608ZM14.795 14.381a1.344 1.344 0 0 0-1.808-.597 1.344 1.344 0 0 0-.598 1.808 1.344 1.344 0 0 0 1.808.597 1.34 1.34 0 0 0 .603-1.797c0-.005 0-.005-.005-.01ZM17.147 14.285a.785.785 0 0 0-1.094.23.785.785 0 0 0 .23 1.093.785.785 0 0 0 1.093-.23.787.787 0 0 0-.23-1.093ZM19.728 12.264a.67.67 0 0 0-.635-.71.67.67 0 0 0-.709.635.67.67 0 0 0 .635.71.677.677 0 0 0 .709-.635ZM21.59 11.784a.436.436 0 1 0-.047.869.436.436 0 0 0 .046-.869ZM19.835 16.104a.558.558 0 0 0-.768.16.558.558 0 0 0 .16.768.558.558 0 0 0 .768-.16.552.552 0 0 0-.16-.768ZM7.472 20.168a.437.437 0 0 0-.603.123.437.437 0 0 0 .123.602c.203.134.47.075.603-.122a.428.428 0 0 0-.123-.603ZM16.603 20.125a.44.44 0 0 0-.192.587.44.44 0 0 0 .586.192.434.434 0 0 0 .192-.581.431.431 0 0 0-.586-.198ZM11.547 15.73a1.35 1.35 0 0 0-.39-1.866 1.35 1.35 0 0 0-1.866.39 1.345 1.345 0 0 0 1.125 2.085c.459.005.88-.224 1.13-.608ZM8.853 17.795a.677.677 0 0 0-.933.192.677.677 0 0 0 .192.933c.31.203.73.117.933-.192a.667.667 0 0 0-.192-.933ZM11.995 20.37a.562.562 0 0 0-.587.523.558.558 0 0 0 .523.587.558.558 0 0 0 .586-.517.563.563 0 0 0-.522-.592ZM12 16.888a.785.785 0 0 0-.832.747c-.027.437.31.81.747.832.437.021.81-.31.832-.747a.788.788 0 0 0-.747-.832ZM15.237 17.741a.674.674 0 1 0 .614 1.2.674.674 0 0 0-.614-1.2Z"/>
    </g>
    <defs>
        <clipPath id="a">
            <path fill="#fff" d="M2 3h20v18.48H2z"/>
        </clipPath>
    </defs>
</svg>
